svg/24/package--filled.svg

<svg width="24" height="24" viewBox="0 0 24 24" fill="currentColor" xmlns="http://www.w3.org/2000/svg"><path d="M12.9713 2.53977C12.3672 2.20419 11.6328 2.20419 11.0287 2.53977L8.80527 3.77502L16.885 8.39199L20.1616 6.54887C20.1009 6.50556 20.0374 6.46539 19.9713 6.42866L12.9713 2.53977Z"/><path d="M20.9673 7.81669L16.9696 10.0654L16.9254 10.1427L16.8791 10.1163L12.75 12.4389V21.5663C12.8253 21.5358 12.8992 21.5006 12.9713 21.4606L19.9713 17.5717C20.6062 17.2189 21 16.5497 21 15.8234V8.17697C21 8.05485 20.9889 7.93435 20.9673 7.81669Z"/><path d="M11.25 21.5663V12.4389L3.03267 7.81666C3.01113 7.93433 3 8.05485 3 8.17697V15.8234C3 16.5497 3.39378 17.2189 4.02871 17.5717L11.0287 21.4606C11.1008 21.5006 11.1747 21.5359 11.25 21.5663Z"/><path d="M3.83838 6.54886L12 11.1398L15.3614 9.249L7.2723 4.62667L4.02871 6.42866C3.9626 6.46539 3.8991 6.50555 3.83838 6.54886Z"/></svg>

<svg xmlns="http://www.w3.org/2000/svg" width="24" height="24" fill="currentColor" viewBox="0 0 24 24">
  <path d="M12.971 2.54a2 2 0 0 0-1.942 0L8.805 3.775l8.08 4.617 3.277-1.843a2 2 0 0 0-.19-.12l-7-3.89Zm7.996 5.277-3.997 2.248-.045.078-.046-.027-4.129 2.323v9.127c.075-.03.15-.065.221-.105l7-3.89A2 2 0 0 0 21 15.824V8.177c0-.122-.011-.243-.033-.36ZM11.25 21.566V12.44L3.033 7.817a2 2 0 0 0-.033.36v7.646a2 2 0 0 0 1.029 1.749l7 3.889c.072.04.146.075.221.105ZM3.838 6.549 12 11.139l3.361-1.89-8.089-4.622L4.03 6.429c-.066.036-.13.077-.19.12Z"/>
</svg>
